images/hot2.svg

<svg width="50" height="52" viewBox="0 0 50 52" fill="none" xmlns="http://www.w3.org/2000/svg">
<path d="M0 4.73687V35.2024C0 36.9079 0.923638 38.4849 2.42381 39.326L22.6556 50.6688C24.1087 51.4865 25.8913 51.4865 27.3444 50.6688L47.5762 39.326C49.0764 38.4849 50 36.9079 50 35.2024V4.73687C50 2.1202 47.8645 0 45.2288 0H4.77115C2.13555 0 0 2.1202 0 4.73687Z" fill="url(#paint0_linear_837_33193)"/>
<g filter="url(#filter0_d_837_33193)">
<path d="M18.9448 8.0618H20.5803V15.1289H18.9448V12.2314H15.7343V15.1289H14.0988V8.0618H15.7343V10.8483H18.9448V8.0618ZM25.6749 15.2501C23.4437 15.2501 21.8082 13.6953 21.8082 11.5954C21.8082 9.49541 23.4437 7.94065 25.6749 7.94065C27.896 7.94065 29.5416 9.48532 29.5416 11.5954C29.5416 13.7054 27.896 15.2501 25.6749 15.2501ZM25.6749 13.8568C26.9369 13.8568 27.8859 12.9381 27.8859 11.5954C27.8859 10.2526 26.9369 9.33388 25.6749 9.33388C24.4129 9.33388 23.4639 10.2526 23.4639 11.5954C23.4639 12.9381 24.4129 13.8568 25.6749 13.8568ZM32.1361 15.1289V9.39446H29.8746V8.0618H36.0331V9.39446H33.7716V15.1289H32.1361Z" fill="#727272"/>
</g>
<g filter="url(#filter1_d_837_33193)">
<path d="M19.3968 34.7445C18.0642 34.7445 16.8796 34.4262 15.8431 33.7895C14.8214 33.1528 14.0144 32.2347 13.4221 31.0353C12.8298 29.8359 12.5337 28.3774 12.5337 26.6598C12.5337 24.9421 12.8298 23.4836 13.4221 22.2842C14.0144 21.0848 14.8214 20.1668 15.8431 19.5301C16.8796 18.8934 18.0642 18.575 19.3968 18.575C20.7147 18.575 21.8845 18.8934 22.9062 19.5301C23.9427 20.1668 24.7571 21.0848 25.3494 22.2842C25.9416 23.4836 26.2378 24.9421 26.2378 26.6598C26.2378 28.3774 25.9416 29.8359 25.3494 31.0353C24.7571 32.2347 23.9427 33.1528 22.9062 33.7895C21.8845 34.4262 20.7147 34.7445 19.3968 34.7445ZM19.3968 31.1464C19.8707 31.1464 20.2853 30.9983 20.6406 30.7022C21.0108 30.406 21.2996 29.9322 21.5069 29.2807C21.7142 28.6143 21.8178 27.7407 21.8178 26.6598C21.8178 25.564 21.7142 24.6904 21.5069 24.0389C21.2996 23.3874 21.0108 22.9135 20.6406 22.6174C20.2853 22.3213 19.8707 22.1732 19.3968 22.1732C18.923 22.1732 18.501 22.3213 18.1308 22.6174C17.7754 22.9135 17.4867 23.3874 17.2646 24.0389C17.0573 24.6904 16.9536 25.564 16.9536 26.6598C16.9536 27.7407 17.0573 28.6143 17.2646 29.2807C17.4867 29.9322 17.7754 30.406 18.1308 30.7022C18.501 30.9983 18.923 31.1464 19.3968 31.1464ZM27.4979 34.4336V31.6794L33.3172 26.2378C33.7318 25.8528 34.0353 25.5122 34.2278 25.2161C34.4351 24.9199 34.5684 24.6534 34.6276 24.4165C34.7016 24.1648 34.7387 23.9352 34.7387 23.7279C34.7387 23.2245 34.5684 22.8321 34.2278 22.5508C33.9021 22.2694 33.406 22.1288 32.7397 22.1288C32.177 22.1288 31.6513 22.2546 31.1627 22.5063C30.6741 22.7581 30.2743 23.1356 29.9633 23.6391L26.6983 21.8178C27.2758 20.8405 28.1124 20.0557 29.2081 19.4634C30.3039 18.8712 31.6143 18.575 33.1395 18.575C34.3389 18.575 35.3902 18.7675 36.2934 19.1525C37.1967 19.5375 37.9 20.0854 38.4035 20.7961C38.9217 21.5069 39.1808 22.3435 39.1808 23.3059C39.1808 23.8094 39.1142 24.3128 38.9809 24.8163C38.8477 25.3049 38.5886 25.8306 38.2036 26.3932C37.8334 26.9411 37.2781 27.5556 36.5377 28.2368L31.9179 32.5012L31.1849 30.9465H39.6029V34.4336H27.4979Z" fill="url(#paint1_linear_837_33193)"/>
</g>
<defs>
<filter id="filter0_d_837_33193" x="14.0977" y="7.94141" width="22.5177" height="7.89267" filterUnits="userSpaceOnUse" color-interpolation-filters="sRGB">
<feFlood flood-opacity="0" result="BackgroundImageFix"/>
<feColorMatrix in="SourceAlpha" type="matrix" values="0 0 0 0 0 0 0 0 0 0 0 0 0 0 0 0 0 0 127 0" result="hardAlpha"/>
<feOffset dx="0.584078" dy="0.584078"/>
<feComposite in2="hardAlpha" operator="out"/>
<feColorMatrix type="matrix" values="0 0 0 0 1 0 0 0 0 1 0 0 0 0 1 0 0 0 1 0"/>
<feBlend mode="normal" in2="BackgroundImageFix" result="effect1_dropShadow_837_33193"/>
<feBlend mode="normal" in="SourceGraphic" in2="effect1_dropShadow_837_33193" result="shape"/>
</filter>
<filter id="filter1_d_837_33193" x="12.5352" y="18.5742" width="28.0155" height="17.121" filterUnits="userSpaceOnUse" color-interpolation-filters="sRGB">
<feFlood flood-opacity="0" result="BackgroundImageFix"/>
<feColorMatrix in="SourceAlpha" type="matrix" values="0 0 0 0 0 0 0 0 0 0 0 0 0 0 0 0 0 0 127 0" result="hardAlpha"/>
<feOffset dx="0.949127" dy="0.949127"/>
<feComposite in2="hardAlpha" operator="out"/>
<feColorMatrix type="matrix" values="0 0 0 0 1 0 0 0 0 1 0 0 0 0 1 0 0 0 1 0"/>
<feBlend mode="normal" in2="BackgroundImageFix" result="effect1_dropShadow_837_33193"/>
<feBlend mode="normal" in="SourceGraphic" in2="effect1_dropShadow_837_33193" result="shape"/>
</filter>
<linearGradient id="paint0_linear_837_33193" x1="0.146283" y1="0.0651041" x2="49.4904" y2="51.7027" gradientUnits="userSpaceOnUse">
<stop stop-color="#C7DADC"/>
<stop offset="0.35" stop-color="#EBF2F2"/>
<stop offset="0.75" stop-color="#C7DADC"/>
<stop offset="1" stop-color="#A4B6B8"/>
</linearGradient>
<linearGradient id="paint1_linear_837_33193" x1="25.9531" y1="13.4336" x2="25.9531" y2="40.4336" gradientUnits="userSpaceOnUse">
<stop stop-color="#878787"/>
<stop offset="1" stop-color="#323232"/>
</linearGradient>
</defs>
</svg>

<?xml version="1.0" encoding="UTF-8"?>
<svg id="_圖層_1" data-name="圖層_1" xmlns="http://www.w3.org/2000/svg" xmlns:xlink="http://www.w3.org/1999/xlink" version="1.1" viewBox="0 0 50 51.28">
  <!-- Generator: Adobe Illustrator 30.6.0, SVG Export Plug-In . SVG Version: 2.1.4 Build 109)  -->
  <defs>
    <style>
      .st0 {
        fill: #727272;
      }

      .st1 {
        fill: url(#_未命名漸層);
      }

      .st2 {
        fill: url(#_未命名漸層_2);
      }
    </style>
    <linearGradient id="_未命名漸層" data-name="未命名漸層" x1="3.2" y1="56.85" x2="52.54" y2="5.21" gradientTransform="translate(0 54) scale(1 -1)" gradientUnits="userSpaceOnUse">
      <stop offset="0" stop-color="#c7dadc"/>
      <stop offset=".35" stop-color="#ebf2f2"/>
      <stop offset=".75" stop-color="#c7dadc"/>
      <stop offset="1" stop-color="#a4b6b8"/>
    </linearGradient>
    <linearGradient id="_未命名漸層_2" data-name="未命名漸層 2" x1="26.07" y1="40.57" x2="26.07" y2="13.57" gradientTransform="translate(0 54) scale(1 -1)" gradientUnits="userSpaceOnUse">
      <stop offset="0" stop-color="#878787"/>
      <stop offset="1" stop-color="#323232"/>
    </linearGradient>
  </defs>
  <path class="st1" d="M0,4.74v30.47c0,1.71.92,3.28,2.42,4.12l20.23,11.34c1.45.82,3.24.82,4.69,0l20.23-11.34c1.5-.84,2.42-2.42,2.42-4.12V4.74c0-2.62-2.14-4.74-4.77-4.74H4.77C2.14,0,0,2.12,0,4.74Z"/>
  <path class="st0" d="M18.94,8.06h1.64v7.07h-1.64v-2.9h-3.21v2.9h-1.64v-7.07h1.64v2.79h3.21v-2.79ZM25.67,15.25c-2.23,0-3.87-1.55-3.87-3.65s1.64-3.65,3.87-3.65,3.87,1.54,3.87,3.65-1.65,3.65-3.87,3.65ZM25.67,13.86c1.26,0,2.21-.92,2.21-2.26s-.95-2.26-2.21-2.26-2.21.92-2.21,2.26.95,2.26,2.21,2.26ZM32.14,15.13v-5.73h-2.26v-1.33h6.16v1.33h-2.26v5.73h-1.64Z"/>
  <path class="st2" d="M19.4,34.74c-1.33,0-2.52-.32-3.55-.95-1.02-.64-1.83-1.55-2.42-2.75-.59-1.2-.89-2.66-.89-4.38s.3-3.18.89-4.38c.59-1.2,1.4-2.12,2.42-2.75,1.04-.64,2.22-.96,3.55-.96s2.49.32,3.51.96c1.04.64,1.85,1.55,2.44,2.75.59,1.2.89,2.66.89,4.38s-.3,3.18-.89,4.38c-.59,1.2-1.41,2.12-2.44,2.75-1.02.64-2.19.95-3.51.95ZM19.4,31.15c.47,0,.89-.15,1.24-.44.37-.3.66-.77.87-1.42.21-.67.31-1.54.31-2.62s-.1-1.97-.31-2.62c-.21-.65-.5-1.13-.87-1.42-.36-.3-.77-.44-1.24-.44s-.9.15-1.27.44c-.36.3-.64.77-.87,1.42-.21.65-.31,1.53-.31,2.62s.1,1.95.31,2.62c.22.65.51,1.13.87,1.42.37.3.79.44,1.27.44ZM27.5,34.43v-2.75l5.82-5.44c.41-.39.72-.73.91-1.02.21-.3.34-.56.4-.8.07-.25.11-.48.11-.69,0-.5-.17-.9-.51-1.18-.33-.28-.82-.42-1.49-.42-.56,0-1.09.13-1.58.38-.49.25-.89.63-1.2,1.13l-3.27-1.82c.58-.98,1.41-1.76,2.51-2.35,1.1-.59,2.41-.89,3.93-.89,1.2,0,2.25.19,3.15.58.9.39,1.61.93,2.11,1.64.52.71.78,1.55.78,2.51,0,.5-.07,1.01-.2,1.51-.13.49-.39,1.01-.78,1.58-.37.55-.93,1.16-1.67,1.84l-4.62,4.26-.73-1.55h8.42v3.49h-12.11Z"/>
</svg>
